img/svg/facebook.svg

<svg width="24" height="24" viewBox="0 0 24 24" xmlns="http://www.w3.org/2000/svg">
<g clip-path="url(#clip0_1974_18229)">
<path d="M12 0C5.37264 0 0 5.37264 0 12C0 17.6275 3.87456 22.3498 9.10128 23.6467V15.6672H6.62688V12H9.10128V10.4198C9.10128 6.33552 10.9498 4.4424 14.9597 4.4424C15.72 4.4424 17.0318 4.59168 17.5685 4.74048V8.06448C17.2853 8.03472 16.7933 8.01984 16.1822 8.01984C14.2147 8.01984 13.4544 8.76528 13.4544 10.703V12H17.3741L16.7006 15.6672H13.4544V23.9122C19.3963 23.1946 24.0005 18.1354 24.0005 12C24 5.37264 18.6274 0 12 0Z"/>
</g>
<defs>
<clipPath id="clip0_1974_18229">
<rect width="24" height="24" fill="white"/>
</clipPath>
</defs>
</svg>

<svg width="24" height="24" viewBox="0 0 24 24" xmlns="http://www.w3.org/2000/svg"><g clip-path="url(#clip0_1974_18229)"><path d="M12 0C5.373 0 0 5.373 0 12c0 5.628 3.875 10.35 9.101 11.647v-7.98H6.627V12H9.1v-1.58c0-4.084 1.849-5.978 5.859-5.978.76 0 2.072.15 2.608.298v3.324a15.38 15.38 0 00-1.386-.044c-1.967 0-2.728.745-2.728 2.683V12h3.92l-.673 3.667h-3.247v8.245C19.396 23.195 24 18.135 24 12c0-6.627-5.373-12-12-12z"/></g><defs><clipPath id="clip0_1974_18229"><path fill="#fff" d="M0 0h24v24H0z"/></clipPath></defs></svg>
